htdocs/f/img/sprite.svg

<?xml version="1.0" encoding="UTF-8"?>
<!DOCTYPE svg PUBLIC "-//W3C//DTD SVG 1.1//EN" "http://www.w3.org/Graphics/SVG/1.1/DTD/svg11.dtd">
<svg xmlns="http://www.w3.org/2000/svg">
	<symbol id="search" viewBox="0 0 16 16">
    <g>
			<path fill-rule="evenodd" clip-rule="evenodd" d="M16.005 14.5312L14.535 16.0042L9.86494 11.3302C8.58891 12.2413 7.01712 12.6398 5.46113 12.4467C3.90514 12.2536 2.47853 11.4829 1.46394 10.2875C0.449352 9.09211 -0.0791616 7.55916 -0.0167726 5.99247C0.0456164 4.42579 0.694299 2.93971 1.80073 1.82876C2.90717 0.717812 4.39068 0.0630737 5.9571 -0.0056964C7.52352 -0.0744665 9.05859 0.44775 10.2581 1.45746C11.4577 2.46717 12.2341 3.89068 12.4335 5.44587C12.633 7.00106 12.2408 8.57444 11.3349 9.85417L16.005 14.5312ZM9.40498 3.31166C8.80243 2.70885 8.0346 2.29827 7.19868 2.13185C6.36277 1.96543 5.49629 2.05065 4.70881 2.37673C3.92134 2.70282 3.24829 3.25511 2.77473 3.96376C2.30117 4.67242 2.04841 5.50559 2.04841 6.35791C2.04841 7.21023 2.30117 8.04341 2.77473 8.75206C3.24829 9.46072 3.92134 10.013 4.70881 10.3391C5.49629 10.6652 6.36277 10.7504 7.19868 10.584C8.0346 10.4176 8.80243 10.007 9.40498 9.40416C10.2122 8.59586 10.6655 7.50024 10.6655 6.35791C10.6655 5.21559 10.2122 4.11996 9.40498 3.31166Z"/>
    </g>
  </symbol>
	<symbol id="arrow-b" viewBox="0 0 14 9">
    <g>
			<path fill-rule="evenodd" clip-rule="evenodd" d="M6.99988 5.39485L12.2449 0L13.9949 1.8L6.99988 8.99485L0.00488281 1.8L1.75488 0L6.99988 5.39485Z"/>
    </g>
  </symbol>
	<symbol id="arrow-nav" viewBox="0 0 52 13">
    <g>
			<path fill-rule="evenodd" clip-rule="evenodd" d="M5.53228 1.46875L0.532284 6.46875L0.00195312 6.99908L0.532284 7.52941L5.53228 12.5294L6.59294 11.4688L2.12327 6.99908L6.59294 2.52941L5.53228 1.46875ZM50.9414 5.99908H8.00195V7.49908H50.9414V5.99908Z"/>
    </g>
  </symbol>
</svg>

<svg xmlns="http://www.w3.org/2000/svg"><symbol id="search" viewBox="0 0 16 16"><path fill-rule="evenodd" clip-rule="evenodd" d="M16.005 14.531l-1.47 1.473-4.67-4.674a6.253 6.253 0 111.47-1.476l4.67 4.677zm-6.6-11.22A4.31 4.31 0 103.31 9.406a4.31 4.31 0 006.095-6.093z"/></symbol><symbol id="arrow-b" viewBox="0 0 14 9"><path fill-rule="evenodd" clip-rule="evenodd" d="M7 5.395L12.245 0l1.75 1.8L7 8.995.005 1.8 1.755 0 7 5.395z"/></symbol><symbol id="arrow-nav" viewBox="0 0 52 13"><path fill-rule="evenodd" clip-rule="evenodd" d="M5.532 1.469l-5 5-.53.53.53.53 5 5 1.06-1.06-4.469-4.47 4.47-4.47-1.06-1.06zm45.41 4.53H8.001v1.5h42.94V6z"/></symbol></svg>
